!!!SOCIAL_FUNCTION:	songs of ceremonial dances
!!!PDT:	1958
!!!OTL: No_9_Song_of_the_Bear_Dance_(c).krn
!!!REG: Northern California
!!!LANG: Non-Tone
!!!LING_GROUP: Penutian
**kern
*staff1
=1-
=
*clefF4
*k[b-e-a-d-]
*M2/4
16c\LL
16c\
16c\
16c\JJ
8B-\L
(16B-\L
16A-\JJ)
=2
8F\L
(16F\L
16E-\JJ)
8E-\
8r
=3
*M3/4
8B-\L
(16B-\L
16A-\JJ)
8A-\L
8A-\J
4A-\
=4
8F\L
8B-\J
8A-\L
8F\J
4E-\
=5
8F\L
8E-\J
8E-\L
8F\J
8E-\
8r
=6:|!
*M2/4
16B-\LL
16B-\
16B-\
16B-\JJ
8A-\L
8A-\J
=7
8F\L
8E-\J
4E-\
=8
*M3/4
8c\L
8B-\J
8A-\L
8A-\J
4A-\
=9
8F\L
8B-\J
8A-\L
8F\J
4E-\
=10
16F\LL
16F\J
8E-\J
8E-\L
8F\J
4E-\
==
*-
